X:1
T:Hosanna in Excelsis, 77.87 D
T:Hosanna in Excelsis, 77.87 D
T:Sydney Hugo Nicholson, 1916
T:Public Domain Courtesy of the Cyber Hymnal™
C:Sydney Hugo Nicholson, 1916
Z:Public Domain
Z:Courtesy of the Cyber Hymnal™
%%score ( 1 2 ) ( 3 4 )
L:1/8
Q:1/4=113
M:none
K:C
V:1 treble 
V:2 treble 
V:3 bass 
V:4 bass 
V:1
 G2 | [Ec]2 [DG]2 [CE]2 [CF]2 | (G3 A) [GB]2 G2 | [FA]2 [GA]2 [Fd]2 [Ac]2 | B3 (z c) [Gd]2 G2 | %5
 [FA]2 (GF) [CE]2 [DG]2 | [Gc]2 (BA) [EG]2 [GB]2 | d3 ^G [Ac] [GB]2 [Gc]2 | A4 !fermata!G2 [CG]2 | %9
 A3 z B [Gc]2 [Ad]2 | c2 B2 [EA]2 [DG]2 | [Cc]3 [CG] [CG]2 [CF]2 | [CE]4 [B,D]2 [B,D]2 | %13
 [CE]2 [FA]2 [EG]2 [CG]2 | [CA]2 [Fd]2 [DB]2 G2 | [Ge]3 [Fd] [Ec]2 [Ad]2 | B4 [Ec]2 |] %17
V:2
 G2 | x8 | D4 G2 x2 | x8 | (A2 G2 x G2) x2 | x2 D2 x4 | x2 ^F2 x4 | ^F2 x7 | (G2 ^F2) G2 x2 | %9
 C2 F2 x5 | G4 x4 | x8 | x8 | x8 | x6 G2 | x8 | (G2 F2) x2 |] %17
V:3
 G,2 | [C,G,]2 [B,,G,]2 [C,G,]2 [A,C]2 | (B,3 C) [G,D]2 (CB,) | [F,A,]2 [E,^C]2 [D,D]2 [F,D]2 | %4
 (D3 C) [G,,B,]2 [E,C]2 x | [F,C]2 [G,B,]2 [A,C]2 ([G,B,][F,A,]) | %6
 [E,G,]2 [^D,B,]2 [E,B,]2 [E,G,]2 | A,3 [^F,D] [G,D]2 [C,E]2 x | (D3 C) !fermata![G,B,]2 (CB,) | %9
 [F,A,]2 [D,D]2 [E,C]2 [F,A,]2 x | [G,D]4 [G,C]2 [F,B,]2 | [E,C]3 [E,B,] [F,B,]2 [F,,A,]2 | %12
 (G,2 ^F,2) [G,,G,]2 G,2 | [E,G,]2 [D,B,]2 [E,C]2 (CB,) | [F,A,]2 [D,A,]2 [G,B,]2 ([A,C][B,D]) | %15
 C3 [G,B,] [A,C]2 [G,B,]2 | [G,D]4 [C,C]2 |] %17
V:4
 G,2 | x8 | G,4 E,2 x2 | x8 | G,4 x5 | x8 | x8 | (D,2 E,) x6 | D,4 E,2 x2 | x9 | x8 | x8 | %12
 G,,4 (G,=F,) x2 | x6 E,2 | x8 | C3 x5 | x6 |] %17

